X:1
T:Make Me White as Snow
T:Make Me White as Snow
T:Frank A. Simpkins
T:Frank A. Simpkins, 1899
T:Public Domain Courtesy of the Cyber Hymnal™
C:Frank A. Simpkins
Z:Public Domain
Z:Courtesy of the Cyber Hymnal™
%%score ( 1 2 ) ( 3 4 )
L:1/8
Q:1/4=100
M:4/4
K:Ab
V:1 treble 
V:2 treble 
V:3 bass 
V:4 bass 
V:1
 [Ec]2 [DB]2 [CA][CE][=B,=D][CE] | [EG]4 [DF]2 z2 | [Ed]2 [Ec]2 [=DB][DF][DG][DF] | E6 z2 | %4
w: 1.~Lead me, O my Sav- ior,|lead me,|To the fount- ain’s crys- tal|flow;|
w: 2.~Guide me, O my Sav- ior,|guide me,|For I know not where to|go;|
w: 3.~Teach me, O my Sav- ior,|teach me,|More Thy love to o- thers|show;|
w: 4.~Keep me, O my Sav- ior,|keep me,|From temp- ta- tion here be-|low;|
 [Ec]2 [DB]2 [CA][CE][=B,=D][CE] | [EG]4 [DF]2 z2 | E4- [CE][Ec][DB][Ec] | [CA]6 z2 || %8
w: Wash me, O my Sav- ior,|wash me,|Make make) me white as|snow.|
w: Guide me to the crys- tal|fount- ain,|Make make) me white as|snow.|
w: Teach me how to bet- ter|serve Thee,|Make make) me white as|snow.|
w: Keep me, O my Sav- ior,|keep me,|Keep keep) me white as|snow.|
"^Refrain" c4- cE[DF][FA] | c6 z2 | e4- eBcd | c6 z2 | [Ec]2 [DB]2 [CA][CE][=B,=D][CE] | %13
w: ~ * ~ ~ ~|~|~ * ~ ~ ~|~|Wash me, O my Sav- ior,|
w: Whit- * er than the|snow,|Whit- * er than the|snow,|Guide me to the crys- tal|
w: ~ * ~ ~ ~|~|~ * ~ ~ ~|~|Teach me how to bet- ter|
w: ~ * ~ ~ ~|~|~ * ~ ~ ~|~|Keep me, O my Sav- ior,|
 [EG]4 [DF]2 z2 | E4- [CE][Ec][DB][Ec] | [CA]6 z2 |] %16
w: wash me,|Make make) me white as|snow.|
w: fount- ain,|Make make) me white as|snow.|
w: serve Thee,|Make make) me white as|snow.|
w: keep me,|Keep keep) me white as|snow.|
V:2
 x8 | x8 | x8 | E6 x2 | x8 | x8 | C2 C2 x4 | x8 || (EEEE E2) x2 | (EEEE E2) x2 | (GGGG G2) G2 | %11
 (AAAA A2) x2 | x8 | x8 | C2 C2 x4 | x8 |] %16
V:3
 [A,,A,]2 [A,,E,]2 [A,,E,][A,,A,][A,,A,][A,,A,] | [D,A,]4 [D,A,]2 z2 | %2
 [E,G,]2 [E,A,]2 [B,,A,][B,,A,][B,,B,][B,,A,] | [E,G,]6 z2 | %4
 [A,,A,]2 [A,,E,]2 [A,,E,][A,,A,][A,,A,][A,,A,] | [D,A,]4 [D,A,]2 z2 | %6
 [E,A,]2 [E,A,]2 [E,A,][E,A,][E,G,][E,G,] | [A,,A,]6 z2 || %8
 [A,,A,][A,,A,][A,,A,][A,,A,] [A,,A,]2 [A,,A,]2 | [A,,A,][A,,A,][C,A,][E,A,] A,2 z2 | %10
 [E,B,][E,B,][E,B,][E,B,] [E,B,]2 [E,E]2 | [A,E][A,E][A,E][A,E] [A,E]2 z2 | %12
 [A,,A,]2 [A,,E,]2 [A,,E,][A,,A,][A,,A,][A,,A,] | [D,A,]4 [D,A,]2 z2 | %14
 [E,A,]2 [E,A,]2 [E,A,][E,A,][E,G,]E, | [A,,E,]6 z2 |] %16
V:4
 x8 | x8 | x8 | x8 | x8 | x8 | x8 | x8 || x8 | x4 A,2 x2 | x8 | x8 | x8 | x8 | x7 E, | x8 |] %16

